X: 490
U:~=!turn!
M:C
L:1/8
K:D
d/d/d f>d a>df>d | =c/c/c e>c g<c e2 | d/d/d f>d a<df<d | A<dF<d F<D TF2 |
d/d/d f>d a>df>d | =c/c/c e<c g>c e2 | d>fe>g f<ae<g | f>de>c d<A TF2 |]


